X: 081
M: C|
L: 1/16
K: D
(AG) |\
(F3A) (A3d) G2B2 B2(ed) | (ce3)(a3g) (f2d'2)(d2a2) |\
c'2 |\
(d'2d2)c2c'2 (b2B2)(A2a2) | g3e (gf)(ed) ce3e3c' |\
d'3dc'3d b3da3d | (cde2) (Ag3) f3dd3b |
(d'2d2)(c2c'2) (b2B2)(A2a2) | g3e (gf)(ed) ce3 (e2dc) |\


